X: 17
T: Morrison's
Z: Will Evans
S: https://thesession.org/tunes/71#setting49359
R: jig
M: 6/8
L: 1/8
K: Edor
"Em"EE/E/E BEB|EBE "D"{A}FED|"Em "EE/E/E {A}Bzc|"D"dcB "D"{c}AFD|
"Em"E{F}E/{G}E/{A}E B{c}B{A}B|EBE FEF|"G"G>{A} G{F}G FGA|"D"dAG FED|
"Em"EE/E/E {A}B2{A}B|EBE "D"{A}FED|"Em "E2E/E/ {A}Bzc|"D"dcB "D"{c}AFD|
"Em"E{F}E/{G}E/{A}E BEB|EBE FEF|"G"G>{A} G{F} G FGA|"D"dAG FED||
"Em"Be/e/e fe/e/e|ae/e/e f{gf}ed|"Em"Be/e/e fe/e/e|"D"a2{ba}g f{gf}ed|
"Em"Be/e/e fe/e/e|ae/e/e f{gf}ef|"G"{ga}gf{g}e "D"d2A|"G" {c}BAG "D"FED|
"Em"{A}B2e f>ee|a>ee fe/e/e|Be/e/e fe/e/e|"D"{fg}a2f def|
"G"g>{a}g{f}g "G"{a}gfe|"D"def "G"g2d|"A"e{fe}dc "D"d2A|"G"{c}BAG "D"{A}FED||

